X:32
T: Dainty Davie 
N: HA032
O: Europa, Mitteleuropa, Deutschland
N: Vorschläge
M: 2/2
L: 1/8
K: D
d2 | A3FGFEF | D2B,2D3
D | D2A2FGAF
D2A2F2d2 | A3GF2EF | D2B,2D3
D | D2d2edcd | B4d2
A2 | d2f2def2 | defgf2
ed | c2e2A2e2 | cdefe2
dc | d3ef2ef | gfedc2
BA | Bcdefedc | B4d2

